X:41
T:Polska efter Ante Sundin
T:Polska efter Larsh\"oga Jonke
R:polska J
A:Medelpad
Z:id:hn-jp-41
M:3/4
L:1/16
K:A
efed cBcd e2fg | a2af b2bg a4 | efed cdef =g2ag | f2e^d f2e2 e4 :|
|: e2a2 B2aB c2ac | d2fa Acec B4 | B2B2 c2c2 d2d2 | c2e2 EGBG A4 |
A4 B4 c2Bc | d2ed cdef g2a2 | bagf efed cBcd | EGBG A8 :| 

